icons/circle/src/status/symbolic/channel-insecure-symbolic.svg

<svg width="16" height="16" version="1.1" xmlns="http://www.w3.org/2000/svg">
 <path d="m8 0c-2.216 0-4 1.784-4 4v0.88477l1 1v-1.8848c0-1.662 1.338-3 3-3s3 1.338 3 3v2h-5.8848l1 1h5.8848c0.554 0 1 0.446 1 1v5c0 0.24698-0.098754 0.46457-0.24609 0.63867l0.71484 0.71484c0.3281-0.356 0.53125-0.82898 0.53125-1.3535v-5c0-1.108-0.892-2-2-2v-2c0-2.216-1.784-4-4-4zm-4.5605 6.0898c-0.83128 0.2426-1.4395 0.99845-1.4395 1.9102v5c0 1.108 0.892 2 2 2h8c0.10902 0 0.21416-0.014621 0.31836-0.03125l-0.96875-0.96875h-7.3496c-0.554 0-1-0.446-1-1v-5c0-0.554 0.446-1 1-1h0.34961l-0.91016-0.91016z" fill="#363636"/>
 <g transform="translate(-593 271)" color="#bebebe" fill="#c6262e">
  <path class="error" d="m594.44-270.44-0.883 0.882 14 14 0.883-0.882z" fill="#c6262e" overflow="visible" style="isolation:auto;mix-blend-mode:normal"/>
 </g>
</svg>

<svg width="16" height="16" xmlns="http://www.w3.org/2000/svg"><path d="M8 0C5.784 0 4 1.784 4 4v.885l1 1V4c0-1.662 1.338-3 3-3s3 1.338 3 3v2H5.115l1 1H12c.554 0 1 .446 1 1v5a.984.984 0 01-.246.639l.715.714c.328-.356.531-.829.531-1.353V8c0-1.108-.892-2-2-2V4c0-2.216-1.784-4-4-4zM3.44 6.09A1.988 1.988 0 002 8v5c0 1.108.892 2 2 2h8c.109 0 .214-.015.318-.031L11.35 14H4c-.554 0-1-.446-1-1V8c0-.554.446-1 1-1h.35l-.91-.91z" fill="#363636"/><path class="error" d="M1.44.56l-.883.882 14 14 .883-.882z" overflow="visible" style="isolation:auto;mix-blend-mode:normal" color="#bebebe" fill="#c6262e"/></svg>
